X: 9064
T: House down the Street (The) (with piano acc.)
C: BB
M: 6/8
Q: 1/8=320
L: 1/8
R: jig
V: 1 program 1 110 %fiddle
V: 2 volume=70 clef=bass m=D program 1 00
K: G
[V:1] D|"G"DEG BAB | "Bm7"dBA "C"GEC | "G"DEG Bdg | "Em7"edB "D"A2 F |
[V:2] z|G,,2[GBD]D,2[GBD]|B,,2[ADF]C,2[CGE]|G,,2[GBD]D,2[GBD]|E,2[DGB]D,2[AFD]|
%
[V:1] "G"DEG BAB | "C"cBc "D"def | "G"gdB "D"FAd | "G"BGF "G"G2 :|
[V:2] G,,2[GBD]D,2[GBD]|C,2[CGE]D,2[AFD]|G,,2[GDB]D,2[AFD]|G,,2[GDB][G,2D2B2]:|
%
[V:1] A | "Em"Bee gfe | "G"bgb gfe | "G"def "C"gfe | "G"dBd "Em"e2 f |
[V:2] z |E,2[EBG]B,,2[EBG]|G,,2[GBD]D,2[GBD]|G,,2[GDB]C,2[CGE]|G,,2[GDB]E,2[EBG]|
%
[V:1] "G"gfe dcB | "Am7"ABG "D"FED | "G"GBd "Am6"cAF | "D"AGF "G"G2 :|
[V:2] G,,2[GBD]D,2[GBD]|A,,2[GCE]D,2[AFD]|G,,2[GDB]A,,2[F,CE]|D,2[AFD][G,2D2B2]:|
%%%%%%%tune repeat
[V:1] D|"G"DEG BAB | "Bm7"dBA "C"GEC | "G"DEG Bdg | "Em7"edB "D"A2 F |
[V:2] z|G,,2[GBD]D,2[GBD]|B,,2[ADF]C,2[CGE]|G,,2[GBD]D,2[GBD]|E,2[DGB]D,2[AFD]|
%
[V:1] "G"DEG BAB | "C"cBc "D"def | "G"gdB "D"FAd | "G"BGF "G"G2 :|
[V:2] G,,2[GBD]D,2[GBD]|C,2[CGE]D,2[AFD]|G,,2[GDB]D,2[AFD]|G,,2[GDB][G,2D2B2]:|
%
[V:1] A | "Em"Bee gfe | "G"bgb gfe | "G"def "C"gfe | "G"dBd "Em"e2 f |
[V:2] z |E,2[EBG]B,,2[EBG]|G,,2[GBD]D,2[GBD]|G,,2[GDB]C,2[CGE]|G,,2[GDB]E,2[EBG]|
%
[V:1] "G"gfe dcB | "Am7"ABG "D"FED | "G"GBd "Am6"cAF |1 "D"AGF "G"G2 :|2\
"D"AGF "G"G3-|G6||
[V:2] G,,2[GBD]D,2[GBD]|A,,2[GCE]D,2[AFD]|G,,2[GDB]A,,2[F,CE]|1 D,2[AFD][G,2D2B2]:|2\
D,2[AFD][G,,3-D3-B,3-]|[G,,6D6B,6]||
%%%%%%%%%%%%%%%%%%%%%%%%%%%%%%%%%%%%%%%%%%%
